packages/core/src/svgs/tokens/mono/SWISE.svg

<svg width="24" height="24" viewBox="0 0 24 24" fill="none" xmlns="http://www.w3.org/2000/svg">
<path d="M3.6665 17.7777L12.0054 21.9999V13.7166L3.6665 17.7722V17.7777Z" fill="white"/>
<path d="M12.0059 21.9999L20.3337 17.7943L12.0059 13.7166V21.9999Z" fill="white"/>
<path d="M12.0054 13.7168L20.3333 17.7946L16.9333 11.3279L12 13.7224L12.0054 13.7168Z" fill="white"/>
<path d="M3.6665 17.7778L12.0054 13.7166L7.08874 11.3167L3.6665 17.7778Z" fill="white"/>
<path d="M7.08857 11.3167L11.9998 13.7167V2L7.08301 11.3167H7.08857Z" fill="white"/>
<path d="M12.0054 13.7167L16.9333 11.3278L12 2V13.7223L12.0054 13.7167Z" fill="white"/>
</svg>

<svg xmlns="http://www.w3.org/2000/svg" width="24" height="24" fill="none" viewBox="0 0 24 24">
    <path fill="#fff" d="M3.667 17.778 12.005 22v-8.283l-8.339 4.055zM12.006 22l8.328-4.206-8.328-4.077z"/>
    <path fill="#fff" d="m12.005 13.717 8.328 4.078-3.4-6.467L12 13.722zm-8.338 4.061 8.338-4.061-4.916-2.4z"/>
    <path fill="#fff" d="m7.089 11.317 4.91 2.4V2l-4.916 9.317zm4.916 2.4 4.928-2.39L12 2v11.722z"/>
</svg>
